Obsidian/actions/22s/kdenlive-split-audio.svg

<svg height="22" viewBox="0 0 22 22" width="22" xmlns="http://www.w3.org/2000/svg"><path d="m13.179688 0c-.0904.000895-.148438.03125-.148438.03125l-11.2519531 2.0742188c-.93797003.1745599-.7734375 1.1621093-.7734375 1.1621093l.4511718 2.7324219h2.9453126l1.0722656-1.9472656 2.3222656 1.9472656h2.2011719l.8632811-1.2246094 1.667969 1.2246094h2.46875l-.863281-5.15039062c-.12404-.74246-.679622-.85033626-.951172-.84765625zm-12.179688 7v1h1v-1zm2 0v1h1v-1zm2 0v1h1v-1zm2 0v1h1v-1zm2 0v1h1v-1zm2 0v1h1v-1zm2 0v1h1v-1zm2 0v1h1v-1zm-13.9980469 2v2.908203h2.8164063l4.0917968 4.091797v-7zm8.9082031 0v3c1.0699998-.58 1.7890628-1.7 1.7890628-3zm3.9999998 0c0 2.57-1.68 4.76-3.9999998 5.5v1.5c3.1499998-.78 5.4999998-3.6 5.4999998-7z" fill="#bebebe" transform="translate(3 3)"/></svg>

<svg xmlns="http://www.w3.org/2000/svg" width="22" height="22" viewBox="0 0 22 22">
 <defs>
  <style id="current-color-scheme" type="text/css">
   .ColorScheme-Text { color:#bebebe; } .ColorScheme-Highlight { color:#4285f4; }
  </style>
 </defs>
 <path style="fill:currentColor" class="ColorScheme-Text" d="M 13.179688 0 C 13.089288 0.000895 13.03125 0.03125 13.03125 0.03125 L 1.7792969 2.1054688 C 0.84132687 2.2800287 1.0058594 3.2675781 1.0058594 3.2675781 L 1.4570312 6 L 4.4023438 6 L 5.4746094 4.0527344 L 7.796875 6 L 9.9980469 6 L 10.861328 4.7753906 L 12.529297 6 L 14.998047 6 L 14.134766 0.84960938 C 14.010726 0.10714938 13.455144 -0.000726875 13.183594 0.001953125 L 13.179688 0 z M 1 7 L 1 8 L 2 8 L 2 7 L 1 7 z M 3 7 L 3 8 L 4 8 L 4 7 L 3 7 z M 5 7 L 5 8 L 6 8 L 6 7 L 5 7 z M 7 7 L 7 8 L 8 8 L 8 7 L 7 7 z M 9 7 L 9 8 L 10 8 L 10 7 L 9 7 z M 11 7 L 11 8 L 12 8 L 12 7 L 11 7 z M 13 7 L 13 8 L 14 8 L 14 7 L 13 7 z M 15 7 L 15 8 L 16 8 L 16 7 L 15 7 z M 1.0019531 9 L 1.0019531 11.908203 L 3.8183594 11.908203 L 7.9101562 16 L 7.9101562 9 L 1.0019531 9 z M 9.9101562 9 L 9.9101562 12 C 10.980156 11.42 11.699219 10.3 11.699219 9 L 9.9101562 9 z M 13.910156 9 C 13.910156 11.57 12.230156 13.76 9.9101562 14.5 L 9.9101562 16 C 13.060156 15.22 15.410156 12.4 15.410156 9 L 13.910156 9 z" transform="translate(3 3)"/>
</svg>
